src/images/icons/vmware.svg

<?xml version="1.0" ?><svg enable-background="new 0 0 515.91 728.5" height="512" id="Layer_1" version="1.1" viewBox="0 0 512.00003 512" width="512" xml:space="preserve" xmlns="http://www.w3.org/2000/svg" xmlns:cc="http://creativecommons.org/ns#" xmlns:dc="http://purl.org/dc/elements/1.1/" xmlns:inkscape="http://www.inkscape.org/namespaces/inkscape" xmlns:rdf="http://www.w3.org/1999/02/22-rdf-syntax-ns#" xmlns:sodipodi="http://sodipodi.sourceforge.net/DTD/sodipodi-0.dtd" xmlns:svg="http://www.w3.org/2000/svg"><defs id="defs7"/><g id="g6933" transform="translate(136.1786,108.25001)"><path d="m -733.62329,72.267944 c 0,203.804876 -165.21649,369.021366 -369.02141,369.021366 -203.8048,0 -369.0213,-165.21649 -369.0213,-369.021366 0,-203.804874 165.2165,-369.021364 369.0213,-369.021364 203.80492,0 369.02141,165.21649 369.02141,369.021364 z" id="path5076" style="fill:#7498bf;fill-opacity:0;fill-rule:nonzero;stroke:none" transform="matrix(0.69372682,0,0,0.69372682,884.75558,97.615782)"/><path d="m 27.448119,-19.151625 c -13.786,0 -24.8428003,10.8329014 -24.8428003,24.1429974 l 0,82.5761096 -30.4411997,0 c -13.786008,0 -24.842809,10.8748 -24.842809,24.142998 l 0,178.79821 c 0,13.3102 11.056801,24.1429 24.842809,24.1429 l 184.746511,0 c 13.7861,0 25.1927,-10.8328 25.1927,-24.1429 l 0,-29.3914 85.3753,0 c 13.772,0 24.84281,-10.875 24.84281,-24.1431 l 0,-178.798318 c 0,-13.282 -11.07081,-23.793 -24.84281,-23.793 l -30.4412,0 0,-29.3914996 c 0,-13.310096 -11.0848,-24.1429974 -24.8428,-24.1429974 z m 0,13.6459974 184.746511,0 c 6.0323,0 10.8469,4.64660005 10.8469,10.497 l 0,29.3914996 -140.309411,0 c -13.758,-10e-5 -25.1927,10.511 -25.1927,23.793 l 0,29.39161 -40.9381,0 0,-82.5761096 c 0,-5.85039995 4.7726,-10.497 10.8468,-10.497 z m 55.284,53.1845996 140.309411,0 0,135.760808 c 0,5.8502 -4.8146,10.8468 -10.8469,10.8468 l -30.0913,0 0,-82.5761 c 1e-4,-13.268198 -11.4066,-24.142998 -25.1927,-24.142998 l -85.375211,0 0,-29.39151 c 0,-5.8363 5.1645,-10.497 11.1967,-10.497 z m 154.305311,0 30.4412,0 c 6.0463,0 10.8469,4.6607 10.8469,10.4969 l 0,178.798318 c 0,5.8363 -4.8006,10.4969 -10.8469,10.4969 l -85.3753,0 0,-39.53841 30.0913,0 c 13.758,-2e-4 24.8428,-11.1828 24.8428,-24.4929 z m -264.873311,53.534508 30.4411997,0 0,82.2263 c 0,13.3101 11.0568003,24.4929 24.8428003,24.4929 l 30.0913,0 0,29.04151 c 0,13.2681 11.4347,24.1431 25.1927,24.1431 l 85.375311,0 0,29.3914 c 0,5.8364 -5.1225,10.497 -11.1968,10.497 l -184.746511,0 c -6.1162,0 -10.846808,-4.6607 -10.846808,-10.497 l 0,-178.79821 c 0,-5.8223 4.730608,-10.497 10.846808,-10.497 z m 44.4372,0 40.9381,0 0,93.0731 -30.0913,0 c -6.0742,0 -10.8468,-4.9966 -10.8468,-10.8468 z m 54.9341,0 85.375211,0 c 6.0743,0 11.1968,4.6747 11.1968,10.497 l 0,82.5761 -96.572011,0 z m 0,106.7192 96.572011,0 0,39.53841 -85.375311,0 c -6.0322,0 -11.1967,-4.6606 -11.1967,-10.4969 z" id="path2985" style="fill:#ffffff;fill-opacity:1;fill-rule:nonzero;stroke:none"/></g></svg>

<?xml version="1.0" encoding="UTF-8" standalone="no"?>
<svg
   xmlns:dc="http://purl.org/dc/elements/1.1/"
   xmlns:cc="http://creativecommons.org/ns#"
   xmlns:rdf="http://www.w3.org/1999/02/22-rdf-syntax-ns#"
   xmlns:svg="http://www.w3.org/2000/svg"
   xmlns="http://www.w3.org/2000/svg"
   xmlns:sodipodi="http://sodipodi.sourceforge.net/DTD/sodipodi-0.dtd"
   xmlns:inkscape="http://www.inkscape.org/namespaces/inkscape"
   enable-background="new 0 0 515.91 728.5"
   height="552.00006"
   id="Layer_1"
   version="1.1"
   viewBox="0 0 552.00004 552.00006"
   width="552"
   xml:space="preserve"
   sodipodi:docname="vmware.svg"
   inkscape:version="0.92.2 5c3e80d, 2017-08-06"><metadata
     id="metadata9"><rdf:RDF><cc:Work
         rdf:about=""><dc:format>image/svg+xml</dc:format><dc:type
           rdf:resource="http://purl.org/dc/dcmitype/StillImage" /><dc:title></dc:title></cc:Work></rdf:RDF></metadata><sodipodi:namedview
     pagecolor="#ffffff"
     bordercolor="#666666"
     borderopacity="1"
     objecttolerance="10"
     gridtolerance="10"
     guidetolerance="10"
     inkscape:pageopacity="0"
     inkscape:pageshadow="2"
     inkscape:window-width="776"
     inkscape:window-height="480"
     id="namedview7"
     showgrid="false"
     fit-margin-top="20"
     fit-margin-left="20"
     fit-margin-bottom="20"
     fit-margin-right="20"
     inkscape:zoom="0.4609375"
     inkscape:cx="276"
     inkscape:cy="275.99996"
     inkscape:window-x="223"
     inkscape:window-y="52"
     inkscape:window-maximized="0"
     inkscape:current-layer="Layer_1" /><defs
     id="defs7" /><g
     id="g6933"
     transform="translate(156.17859,128.25002)"><path
       d="m -733.62329,72.267944 c 0,203.804876 -165.21649,369.021366 -369.02141,369.021366 -203.8048,0 -369.0213,-165.21649 -369.0213,-369.021366 0,-203.804874 165.2165,-369.021364 369.0213,-369.021364 203.80492,0 369.02141,165.21649 369.02141,369.021364 z"
       id="path5076"
       style="fill:#7498bf;fill-opacity:0;fill-rule:nonzero;stroke:none"
       transform="matrix(0.69372682,0,0,0.69372682,884.75558,97.615782)"
       inkscape:connector-curvature="0" /><path
       d="m 27.448119,-19.151625 c -13.786,0 -24.8428003,10.8329014 -24.8428003,24.1429974 V 87.567482 H -27.835881 c -13.786008,0 -24.842809,10.8748 -24.842809,24.142998 v 178.79821 c 0,13.3102 11.056801,24.1429 24.842809,24.1429 H 156.91063 c 13.7861,0 25.1927,-10.8328 25.1927,-24.1429 v -29.3914 h 85.3753 c 13.772,0 24.84281,-10.875 24.84281,-24.1431 V 58.175872 c 0,-13.282 -11.07081,-23.793 -24.84281,-23.793 h -30.4412 V 4.9913724 c 0,-13.310096 -11.0848,-24.1429974 -24.8428,-24.1429974 z m 0,13.6459974 H 212.19463 c 6.0323,0 10.8469,4.64660005 10.8469,10.497 V 34.382872 H 82.732119 c -13.758,-10e-5 -25.1927,10.511 -25.1927,23.793 v 29.39161 h -40.9381 V 4.9913724 c 0,-5.85039995 4.7726,-10.497 10.8468,-10.497 z m 55.284,53.1845996 H 223.04153 V 183.43978 c 0,5.8502 -4.8146,10.8468 -10.8469,10.8468 h -30.0913 v -82.5761 c 1e-4,-13.268198 -11.4066,-24.142998 -25.1927,-24.142998 H 71.535419 v -29.39151 c 0,-5.8363 5.1645,-10.497 11.1967,-10.497 z m 154.305311,0 h 30.4412 c 6.0463,0 10.8469,4.6607 10.8469,10.4969 V 236.97419 c 0,5.8363 -4.8006,10.4969 -10.8469,10.4969 h -85.3753 v -39.53841 h 30.0913 c 13.758,-2e-4 24.8428,-11.1828 24.8428,-24.4929 z M -27.835881,101.21348 H 2.6053187 v 82.2263 c 0,13.3101 11.0568003,24.4929 24.8428003,24.4929 h 30.0913 v 29.04151 c 0,13.2681 11.4347,24.1431 25.1927,24.1431 h 85.375311 v 29.3914 c 0,5.8364 -5.1225,10.497 -11.1968,10.497 H -27.835881 c -6.1162,0 -10.846808,-4.6607 -10.846808,-10.497 V 111.71048 c 0,-5.8223 4.730608,-10.497 10.846808,-10.497 z m 44.4372,0 h 40.9381 v 93.0731 h -30.0913 c -6.0742,0 -10.8468,-4.9966 -10.8468,-10.8468 z m 54.9341,0 h 85.375211 c 6.0743,0 11.1968,4.6747 11.1968,10.497 v 82.5761 H 71.535419 Z m 0,106.7192 h 96.572011 v 39.53841 H 82.732119 c -6.0322,0 -11.1967,-4.6606 -11.1967,-10.4969 z"
       id="path2985"
       style="fill:#ffffff;fill-opacity:1;fill-rule:nonzero;stroke:none"
       inkscape:connector-curvature="0" /></g></svg>
